X: 29
M:2/4
L:1/16
K:G
"Moderato"ABAG ABAE|ABAG ABAE|ABAG ABAE|ABAG ABAE|
(3AGA (3AGA (3AGA A>E|(3AGA (3AGA (3AGA A>E|
(3AGA (3AGA (3AGA A>E|{CDEGA}B3c d3e|
d2e2 d2f2|d2e2 d2f2|d2e2 d2e2|d8|
cBAG E4|ABAG ABAE|ABAG ABAE|ABAG A3E|
(3AGA (3AGA (3AGA A>E|(3AGA (3AGA (3AGA A>E|

